X:1
T:Major Graham of Inchbrakie
T:Major Graham of Inchbrakie
T:Niel Gow
C:Niel Gow
L:1/8
Q:1/4=120
M:4/4
K:D
V:1 treble 
V:1
"^Slow" B, | TA,>B,DD D2{D} d>B | AFED [CE]2 [CE]F | TA,>B,DD D2{D} d>B | AFTE>F D2 D :| %5
 (A/4B/4c/) | d>edc TB>ABd | A>FTED [CE]2 [CE]B/c/ | d>edc TB>ABd | AFTE>F D2 DB/c/ | %10
 d>edc TB>ABd | (AF)TED [CE]2 [CE]F | TA,>B,DD D2{D} e>B | AFTE>F D2 D || %14

